localPackages/DesignSystem/Sources/DesignSystem/Resources/Assets.xcassets/IconSet/ic-mobile-plus.imageset/ic-mobile-plus.svg

<svg width="24" height="24" viewBox="0 0 24 24" fill="none" xmlns="http://www.w3.org/2000/svg">
<g id="ic-mobile-plus">
<path id="Icon" fill-rule="evenodd" clip-rule="evenodd" d="M1.5 4.5C1.5 2.84315 2.84315 1.5 4.5 1.5H13.5C15.1569 1.5 16.5 2.84315 16.5 4.5V6.75V7.5H15V6.75V4.5C15 3.67157 14.3284 3 13.5 3H4.5C3.67157 3 3 3.67157 3 4.5V19.5C3 20.3284 3.67157 21 4.5 21H13.5C14.3284 21 15 20.3284 15 19.5V17.25V16.5H16.5V17.25V19.5C16.5 21.1569 15.1569 22.5 13.5 22.5H4.5C2.84315 22.5 1.5 21.1569 1.5 19.5V4.5ZM11.25 18.75C11.25 19.1642 10.9142 19.5 10.5 19.5H7.5C7.08579 19.5 6.75 19.1642 6.75 18.75C6.75 18.3358 7.08579 18 7.5 18H10.5C10.9142 18 11.25 18.3358 11.25 18.75ZM19.5 9C19.5 8.58579 19.1642 8.25 18.75 8.25C18.3358 8.25 18 8.58579 18 9V11.25H15.75C15.3358 11.25 15 11.5858 15 12C15 12.4142 15.3358 12.75 15.75 12.75H18V15C18 15.4142 18.3358 15.75 18.75 15.75C19.1642 15.75 19.5 15.4142 19.5 15V12.75H21.75C22.1642 12.75 22.5 12.4142 22.5 12C22.5 11.5858 22.1642 11.25 21.75 11.25H19.5V9Z" fill="#0F0F0F"/>
</g>
</svg>

<svg xmlns="http://www.w3.org/2000/svg" width="24" height="24" viewBox="0 0 24 24">
  <g class="ic-mobile-plus">
    <path fill-rule="evenodd" d="M1.5 4.5a3 3 0 0 1 3-3h9a3 3 0 0 1 3 3v3H15v-3A1.5 1.5 0 0 0 13.5 3h-9A1.5 1.5 0 0 0 3 4.5v15A1.5 1.5 0 0 0 4.5 21h9a1.5 1.5 0 0 0 1.5-1.5v-3h1.5v3a3 3 0 0 1-3 3h-9a3 3 0 0 1-3-3v-15Zm9.75 14.25a.75.75 0 0 1-.75.75h-3a.75.75 0 0 1 0-1.5h3a.75.75 0 0 1 .75.75ZM19.5 9A.75.75 0 0 0 18 9v2.25h-2.25a.75.75 0 0 0 0 1.5H18V15a.75.75 0 0 0 1.5 0v-2.25h2.25a.75.75 0 0 0 0-1.5H19.5V9Z" class="Icon"/>
  </g>
</svg>
